src/assets/img/remove.svg

<?xml version="1.0" encoding="UTF-8"?>
<svg xmlns="http://www.w3.org/2000/svg" xmlns:xlink="http://www.w3.org/1999/xlink" width="70pt" height="70pt" viewBox="0 0 70 70" version="1.1">
<g id="surface1">
<path style=" stroke:none;fill-rule:nonzero;fill:rgb(100%,32.941176%,43.921569%);fill-opacity:1;" d="M 17.5 55.417969 C 17.5 58.625 20.125 61.25 23.332031 61.25 L 46.667969 61.25 C 49.875 61.25 52.5 58.625 52.5 55.417969 L 52.5 20.417969 L 17.5 20.417969 Z M 55.417969 11.667969 L 45.207031 11.667969 L 42.292969 8.75 L 27.707031 8.75 L 24.792969 11.667969 L 14.582031 11.667969 L 14.582031 17.5 L 55.417969 17.5 Z M 55.417969 11.667969 "/>
</g>
</svg>

<?xml version="1.0" encoding="UTF-8"?>
<svg width="70pt" height="70pt" version="1.1" viewBox="0 0 70 70" xmlns="http://www.w3.org/2000/svg">
    <path d="m17.5 55.418c0 3.207 2.625 5.832 5.832 5.832h23.336c3.207 0 5.832-2.625 5.832-5.832v-35h-35zm37.918-43.75h-10.211l-2.9141-2.918h-14.586l-2.9141 2.918h-10.211v5.832h40.836z"
          fill="#ff5370"/>
</svg>
